icons/svg/landuse_colored/landfill.svg

<?xml version="1.0" encoding="UTF-8" standalone="no"?>
<!-- Created with Inkscape (http://www.inkscape.org/) -->

<svg
   xmlns:dc="http://purl.org/dc/elements/1.1/"
   xmlns:cc="http://creativecommons.org/ns#"
   xmlns:rdf="http://www.w3.org/1999/02/22-rdf-syntax-ns#"
   xmlns:svg="http://www.w3.org/2000/svg"
   xmlns="http://www.w3.org/2000/svg"
   xmlns:sodipodi="http://sodipodi.sourceforge.net/DTD/sodipodi-0.dtd"
   xmlns:inkscape="http://www.inkscape.org/namespaces/inkscape"
   version="1.0"
   width="580"
   height="580"
   id="svg2"
   sodipodi:version="0.32"
   inkscape:version="0.48.4 r9939"
   sodipodi:docname="coniferous.svg"
   inkscape:output_extension="org.inkscape.output.svg.inkscape">
  <metadata
     id="metadata2975">
    <rdf:RDF>
      <cc:Work
         rdf:about="">
        <dc:format>image/svg+xml</dc:format>
        <dc:type
           rdf:resource="http://purl.org/dc/dcmitype/StillImage" />
        <dc:title></dc:title>
      </cc:Work>
    </rdf:RDF>
  </metadata>
  <sodipodi:namedview
     inkscape:window-height="1004"
     inkscape:window-width="1920"
     inkscape:pageshadow="2"
     inkscape:pageopacity="0.0"
     guidetolerance="10.0"
     gridtolerance="10.0"
     objecttolerance="10.0"
     borderopacity="1.0"
     bordercolor="#666666"
     pagecolor="#ffffff"
     id="base"
     inkscape:zoom="0.92167712"
     inkscape:cx="315.9848"
     inkscape:cy="330.59901"
     inkscape:window-x="1680"
     inkscape:window-y="0"
     inkscape:current-layer="svg2"
     showgrid="false"
     inkscape:window-maximized="1" />
  <defs
     id="defs4">
    <inkscape:perspective
       sodipodi:type="inkscape:persp3d"
       inkscape:vp_x="0 : 290 : 1"
       inkscape:vp_y="0 : 1000 : 0"
       inkscape:vp_z="580 : 290 : 1"
       inkscape:persp3d-origin="290 : 193.33333 : 1"
       id="perspective2441" />
    <inkscape:perspective
       id="perspective2466"
       inkscape:persp3d-origin="372.04724 : 350.78739 : 1"
       inkscape:vp_z="744.09448 : 526.18109 : 1"
       inkscape:vp_y="0 : 1000 : 0"
       inkscape:vp_x="0 : 526.18109 : 1"
       sodipodi:type="inkscape:persp3d" />
    <inkscape:perspective
       id="perspective3333"
       inkscape:persp3d-origin="372.04724 : 350.78739 : 1"
       inkscape:vp_z="744.09448 : 526.18109 : 1"
       inkscape:vp_y="0 : 1000 : 0"
       inkscape:vp_x="0 : 526.18109 : 1"
       sodipodi:type="inkscape:persp3d" />
    <inkscape:perspective
       id="perspective3401"
       inkscape:persp3d-origin="372.04724 : 350.78739 : 1"
       inkscape:vp_z="744.09448 : 526.18109 : 1"
       inkscape:vp_y="0 : 1000 : 0"
       inkscape:vp_x="0 : 526.18109 : 1"
       sodipodi:type="inkscape:persp3d" />
    <inkscape:perspective
       id="perspective3464"
       inkscape:persp3d-origin="372.04724 : 350.78739 : 1"
       inkscape:vp_z="744.09448 : 526.18109 : 1"
       inkscape:vp_y="0 : 1000 : 0"
       inkscape:vp_x="0 : 526.18109 : 1"
       sodipodi:type="inkscape:persp3d" />
    <inkscape:perspective
       id="perspective3581"
       inkscape:persp3d-origin="225 : 150 : 1"
       inkscape:vp_z="450 : 225 : 1"
       inkscape:vp_y="0 : 1000 : 0"
       inkscape:vp_x="0 : 225 : 1"
       sodipodi:type="inkscape:persp3d" />
    <inkscape:perspective
       id="perspective4312"
       inkscape:persp3d-origin="225 : 150 : 1"
       inkscape:vp_z="450 : 225 : 1"
       inkscape:vp_y="0 : 1000 : 0"
       inkscape:vp_x="0 : 225 : 1"
       sodipodi:type="inkscape:persp3d" />
    <inkscape:perspective
       id="perspective8860"
       inkscape:persp3d-origin="372.04724 : 350.78739 : 1"
       inkscape:vp_z="744.09448 : 526.18109 : 1"
       inkscape:vp_y="0 : 1000 : 0"
       inkscape:vp_x="0 : 526.18109 : 1"
       sodipodi:type="inkscape:persp3d" />
    <inkscape:perspective
       id="perspective8887"
       inkscape:persp3d-origin="372.04724 : 350.78739 : 1"
       inkscape:vp_z="744.09448 : 526.18109 : 1"
       inkscape:vp_y="0 : 1000 : 0"
       inkscape:vp_x="0 : 526.18109 : 1"
       sodipodi:type="inkscape:persp3d" />
    <inkscape:perspective
       sodipodi:type="inkscape:persp3d"
       inkscape:vp_x="0 : 16 : 1"
       inkscape:vp_y="0 : 1000 : 0"
       inkscape:vp_z="32 : 16 : 1"
       inkscape:persp3d-origin="16 : 10.666667 : 1"
       id="perspective4904" />
    <inkscape:perspective
       sodipodi:type="inkscape:persp3d"
       inkscape:vp_x="0 : 6 : 1"
       inkscape:vp_y="0 : 1000 : 0"
       inkscape:vp_z="12 : 6 : 1"
       inkscape:persp3d-origin="6 : 4 : 1"
       id="perspective4668" />
    <inkscape:perspective
       sodipodi:type="inkscape:persp3d"
       inkscape:vp_x="0 : 526.18109 : 1"
       inkscape:vp_y="0 : 1000 : 0"
       inkscape:vp_z="744.09448 : 526.18109 : 1"
       inkscape:persp3d-origin="372.04724 : 350.78739 : 1"
       id="perspective4471" />
    <symbol
       id="symbol-university"
       viewBox="244.5 110 489 219.9">
      <path
         d="M79,43l57,119c0,0,21-96,104-96s124,106,124,106l43-133l82-17L0,17L79,43z"
         id="path4460" />
      <path
         fill="none"
         stroke="#000000"
         stroke-width="20"
         d="M94,176l-21,39"
         id="path4462" />
      <path
         d="M300,19c0,10.5-22.6,19-50.5,19S199,29.5,199,19s22.6-19,50.5-19S300,8.5,300,19z"
         id="path4464" />
      <path
         ill="none"
         stroke="#000000"
         stroke-width="20"
         d="M112,216l-16-38L64,88c0,0-9-8-4-35s16-24,16-24"
         id="path4466" />
    </symbol>
    <inkscape:perspective
       sodipodi:type="inkscape:persp3d"
       inkscape:vp_x="0 : 30 : 1"
       inkscape:vp_y="0 : 1000 : 0"
       inkscape:vp_z="60 : 30 : 1"
       inkscape:persp3d-origin="30 : 20 : 1"
       id="perspective3452" />
    <inkscape:perspective
       id="perspective9479"
       inkscape:persp3d-origin="290 : 193.33333 : 1"
       inkscape:vp_z="580 : 290 : 1"
       inkscape:vp_y="0 : 1000 : 0"
       inkscape:vp_x="0 : 290 : 1"
       sodipodi:type="inkscape:persp3d" />
    <inkscape:perspective
       id="perspective9690"
       inkscape:persp3d-origin="372.04724 : 350.78739 : 1"
       inkscape:vp_z="744.09448 : 526.18109 : 1"
       inkscape:vp_y="0 : 1000 : 0"
       inkscape:vp_x="0 : 526.18109 : 1"
       sodipodi:type="inkscape:persp3d" />
    <inkscape:perspective
       sodipodi:type="inkscape:persp3d"
       inkscape:vp_x="0 : 290 : 1"
       inkscape:vp_y="0 : 1000 : 0"
       inkscape:vp_z="580 : 290 : 1"
       inkscape:persp3d-origin="290 : 193.33333 : 1"
       id="perspective9819" />
    <inkscape:perspective
       id="perspective9817"
       inkscape:persp3d-origin="30 : 20 : 1"
       inkscape:vp_z="60 : 30 : 1"
       inkscape:vp_y="0 : 1000 : 0"
       inkscape:vp_x="0 : 30 : 1"
       sodipodi:type="inkscape:persp3d" />
    <symbol
       viewBox="244.5 110 489 219.9"
       id="symbol9807">
      <path
         id="path9809"
         d="M79,43l57,119c0,0,21-96,104-96s124,106,124,106l43-133l82-17L0,17L79,43z" />
      <path
         id="path9811"
         d="M94,176l-21,39"
         stroke-width="20"
         stroke="#000000"
         fill="none" />
      <path
         id="path9813"
         d="M300,19c0,10.5-22.6,19-50.5,19S199,29.5,199,19s22.6-19,50.5-19S300,8.5,300,19z" />
      <path
         id="path9815"
         d="M112,216l-16-38L64,88c0,0-9-8-4-35s16-24,16-24"
         stroke-width="20"
         stroke="#000000"
         ill="none" />
    </symbol>
    <inkscape:perspective
       id="perspective9805"
       inkscape:persp3d-origin="372.04724 : 350.78739 : 1"
       inkscape:vp_z="744.09448 : 526.18109 : 1"
       inkscape:vp_y="0 : 1000 : 0"
       inkscape:vp_x="0 : 526.18109 : 1"
       sodipodi:type="inkscape:persp3d" />
    <inkscape:perspective
       id="perspective9803"
       inkscape:persp3d-origin="6 : 4 : 1"
       inkscape:vp_z="12 : 6 : 1"
       inkscape:vp_y="0 : 1000 : 0"
       inkscape:vp_x="0 : 6 : 1"
       sodipodi:type="inkscape:persp3d" />
    <inkscape:perspective
       id="perspective9801"
       inkscape:persp3d-origin="16 : 10.666667 : 1"
       inkscape:vp_z="32 : 16 : 1"
       inkscape:vp_y="0 : 1000 : 0"
       inkscape:vp_x="0 : 16 : 1"
       sodipodi:type="inkscape:persp3d" />
    <inkscape:perspective
       sodipodi:type="inkscape:persp3d"
       inkscape:vp_x="0 : 526.18109 : 1"
       inkscape:vp_y="0 : 1000 : 0"
       inkscape:vp_z="744.09448 : 526.18109 : 1"
       inkscape:persp3d-origin="372.04724 : 350.78739 : 1"
       id="perspective9799" />
    <inkscape:perspective
       sodipodi:type="inkscape:persp3d"
       inkscape:vp_x="0 : 526.18109 : 1"
       inkscape:vp_y="0 : 1000 : 0"
       inkscape:vp_z="744.09448 : 526.18109 : 1"
       inkscape:persp3d-origin="372.04724 : 350.78739 : 1"
       id="perspective9797" />
    <inkscape:perspective
       sodipodi:type="inkscape:persp3d"
       inkscape:vp_x="0 : 225 : 1"
       inkscape:vp_y="0 : 1000 : 0"
       inkscape:vp_z="450 : 225 : 1"
       inkscape:persp3d-origin="225 : 150 : 1"
       id="perspective9795" />
    <inkscape:perspective
       sodipodi:type="inkscape:persp3d"
       inkscape:vp_x="0 : 225 : 1"
       inkscape:vp_y="0 : 1000 : 0"
       inkscape:vp_z="450 : 225 : 1"
       inkscape:persp3d-origin="225 : 150 : 1"
       id="perspective9793" />
    <inkscape:perspective
       sodipodi:type="inkscape:persp3d"
       inkscape:vp_x="0 : 526.18109 : 1"
       inkscape:vp_y="0 : 1000 : 0"
       inkscape:vp_z="744.09448 : 526.18109 : 1"
       inkscape:persp3d-origin="372.04724 : 350.78739 : 1"
       id="perspective9791" />
    <inkscape:perspective
       sodipodi:type="inkscape:persp3d"
       inkscape:vp_x="0 : 526.18109 : 1"
       inkscape:vp_y="0 : 1000 : 0"
       inkscape:vp_z="744.09448 : 526.18109 : 1"
       inkscape:persp3d-origin="372.04724 : 350.78739 : 1"
       id="perspective9789" />
    <inkscape:perspective
       sodipodi:type="inkscape:persp3d"
       inkscape:vp_x="0 : 526.18109 : 1"
       inkscape:vp_y="0 : 1000 : 0"
       inkscape:vp_z="744.09448 : 526.18109 : 1"
       inkscape:persp3d-origin="372.04724 : 350.78739 : 1"
       id="perspective9787" />
    <inkscape:perspective
       sodipodi:type="inkscape:persp3d"
       inkscape:vp_x="0 : 526.18109 : 1"
       inkscape:vp_y="0 : 1000 : 0"
       inkscape:vp_z="744.09448 : 526.18109 : 1"
       inkscape:persp3d-origin="372.04724 : 350.78739 : 1"
       id="perspective9785" />
    <inkscape:perspective
       id="perspective9783"
       inkscape:persp3d-origin="290 : 193.33333 : 1"
       inkscape:vp_z="580 : 290 : 1"
       inkscape:vp_y="0 : 1000 : 0"
       inkscape:vp_x="0 : 290 : 1"
       sodipodi:type="inkscape:persp3d" />
  </defs>
  <g
     id="g1327">
    <path
       d="M 66.275,1.768 C 24.94,1.768 1.704,23.139 1.704,66.804 L 1.704,516.927 C 1.704,557.771 22.599,579.156 63.896,579.156 L 515.92,579.156 C 557.227,579.156 578.149,558.841 578.149,516.927 L 578.149,66.804 C 578.149,24.203 557.227,1.768 514.628,1.768 C 514.624,1.768 66.133,1.625 66.275,1.768 z "
       style="fill:#111;stroke:#eee;stroke-width:3.40799999"
       id="path1329" />
  </g>
  <path
     style="color:#000000;fill:#ffffff;fill-opacity:1;fill-rule:evenodd;stroke:#ffffff;stroke-width:4.25836277;stroke-linecap:round;stroke-linejoin:round;stroke-miterlimit:4;stroke-opacity:1;stroke-dasharray:none;stroke-dashoffset:0;marker:none;visibility:visible;display:inline;overflow:visible;enable-background:accumulate"
     inkscape:connector-curvature="0"
     d="m 536.73205,281.86717 -36.2406,-48.2644 c -7.41353,-8.92406 -12.42629,-16.1961 -24.33344,-16.1961 h -73.0003 c -8.93843,0 -16.22227,7.27204 -16.22227,16.1961 v 161.96107 c 0,8.89166 7.23514,16.11512 16.12501,16.17989 3.99064,-27.90587 27.85362,-49.49529 56.8753,-49.49529 29.03791,0 52.90087,21.60561 56.87535,49.51151 h 16.12489 c 8.93856,0 16.22239,-7.27206 16.22239,-16.19611 0,0 0,-65.64282 0,-80.98054 0,-15.3377 -12.42633,-32.71613 -12.42633,-32.71613 z m -101.1298,32.71613 v -64.78442 h 39.67983 c 2.61169,0 6.24558,3.82228 6.24558,3.82228 l 34.14781,47.19545 c 3.03363,4.43773 6.3105,9.71767 6.3105,13.76669 h -86.38372 z"
     id="path19" />
  <g
     transform="matrix(16.222291,0,0,16.196106,127.37877,39.249512)"
     id="g21"
     style="color:#000000;fill:#ffffff;fill-opacity:1;fill-rule:evenodd;stroke:#ffffff;stroke-width:0.26271281;stroke-linecap:round;stroke-linejoin:round;stroke-miterlimit:4;stroke-opacity:1;stroke-dasharray:none;stroke-dashoffset:0;marker:none;visibility:visible;display:inline;overflow:visible;enable-background:accumulate">
    <circle
       d="m 10.813,23.5 c 0,1.277435 -1.0355654,2.313 -2.313,2.313 -1.2774346,0 -2.313,-1.035565 -2.313,-2.313 0,-1.277435 1.0355654,-2.313 2.313,-2.313 1.2774346,0 2.313,1.035565 2.313,2.313 z"
       style="color:#000000;fill:#ffffff;fill-opacity:1;fill-rule:evenodd;stroke:#ffffff;stroke-width:0.26271281;stroke-linecap:round;stroke-linejoin:round;stroke-miterlimit:4;stroke-opacity:1;stroke-dasharray:none;stroke-dashoffset:0;marker:none;visibility:visible;display:inline;overflow:visible;enable-background:accumulate"
       sodipodi:ry="2.313"
       sodipodi:rx="2.313"
       sodipodi:cy="23.5"
       sodipodi:cx="8.5"
       cx="8.5"
       cy="23.5"
       r="2.313"
       id="circle23" />
  </g>
  <g
     transform="matrix(16.222291,0,0,16.196106,127.37877,39.249512)"
     id="g25"
     style="color:#000000;fill:#ffffff;fill-opacity:1;fill-rule:evenodd;stroke:#ffffff;stroke-width:0.26271281;stroke-linecap:round;stroke-linejoin:round;stroke-miterlimit:4;stroke-opacity:1;stroke-dasharray:none;stroke-dashoffset:0;marker:none;visibility:visible;display:inline;overflow:visible;enable-background:accumulate">
    <circle
       d="m 22.813,23.5 c 0,1.277435 -1.035565,2.313 -2.313,2.313 -1.277435,0 -2.313,-1.035565 -2.313,-2.313 0,-1.277435 1.035565,-2.313 2.313,-2.313 1.277435,0 2.313,1.035565 2.313,2.313 z"
       style="color:#000000;fill:#ffffff;fill-opacity:1;fill-rule:evenodd;stroke:#ffffff;stroke-width:0.26271281;stroke-linecap:round;stroke-linejoin:round;stroke-miterlimit:4;stroke-opacity:1;stroke-dasharray:none;stroke-dashoffset:0;marker:none;visibility:visible;display:inline;overflow:visible;enable-background:accumulate"
       sodipodi:ry="2.313"
       sodipodi:rx="2.313"
       sodipodi:cy="23.5"
       sodipodi:cx="20.5"
       cx="20.5"
       cy="23.5"
       r="2.313"
       id="circle27" />
  </g>
  <path
     style="color:#000000;fill:#ffffff;fill-opacity:1;fill-rule:evenodd;stroke:#ffffff;stroke-width:4.25836277;stroke-linecap:round;stroke-linejoin:round;stroke-miterlimit:4;stroke-opacity:1;stroke-dasharray:none;stroke-dashoffset:0;marker:none;visibility:visible;display:inline;overflow:visible;enable-background:accumulate"
     inkscape:connector-curvature="0"
     d="m 96.656341,393.64585 c 0,8.92405 6.900209,14.27812 15.838689,14.27812 0,0 11.33556,-48.10868 53.52575,-47.94974 42.19018,0.15895 48.14893,27.85655 49.0781,26.63723 14.80162,-28.58002 54.7563,-25.89741 54.7563,-25.89741 0,0 50.98292,3.96011 52.27216,51.0459 l 32.36345,0 c 8.93855,0 16.22239,-7.27206 16.22239,-16.19611 1.42674,-18.35061 -0.0629,-45.37318 -0.0629,-45.37318 l -274.287039,0.35126 c 0,0 0.29307,23.06189 0.29307,43.10393 z"
     id="path29"
     sodipodi:nodetypes="cszcccsccccc" />
  <g
     transform="matrix(16.222291,0,0,16.196106,31.378771,39.249513)"
     id="g21-0"
     style="color:#000000;fill:#ffffff;fill-opacity:1;fill-rule:evenodd;stroke:#ffffff;stroke-width:0.26271281;stroke-linecap:round;stroke-linejoin:round;stroke-miterlimit:4;stroke-opacity:1;stroke-dasharray:none;stroke-dashoffset:0;marker:none;visibility:visible;display:inline;overflow:visible;enable-background:accumulate">
    <circle
       d="m 10.813,23.5 c 0,1.277435 -1.0355654,2.313 -2.313,2.313 -1.2774346,0 -2.313,-1.035565 -2.313,-2.313 0,-1.277435 1.0355654,-2.313 2.313,-2.313 1.2774346,0 2.313,1.035565 2.313,2.313 z"
       style="color:#000000;fill:#ffffff;fill-opacity:1;fill-rule:evenodd;stroke:#ffffff;stroke-width:0.26271281;stroke-linecap:round;stroke-linejoin:round;stroke-miterlimit:4;stroke-opacity:1;stroke-dasharray:none;stroke-dashoffset:0;marker:none;visibility:visible;display:inline;overflow:visible;enable-background:accumulate"
       sodipodi:ry="2.313"
       sodipodi:rx="2.313"
       sodipodi:cy="23.5"
       sodipodi:cx="8.5"
       cx="8.5"
       cy="23.5"
       r="2.313"
       id="circle23-9" />
  </g>
  <rect
     style="color:#000000;fill:#ffffff;fill-opacity:1;fill-rule:evenodd;stroke:#ffffff;stroke-width:4.25836277;stroke-linecap:round;stroke-linejoin:round;stroke-miterlimit:4;stroke-opacity:1;stroke-dasharray:none;stroke-dashoffset:0;marker:none;visibility:visible;display:inline;overflow:visible;enable-background:accumulate"
     id="rect3117"
     width="267.98972"
     height="118.26267"
     x="-88.324707"
     y="210.82652"
     inkscape:transform-center-x="-85.020828"
     inkscape:transform-center-y="-122.69501"
     transform="matrix(0.85671035,-0.51579781,0.51579781,0.85671035,0,0)" />
  <path
     style="font-size:medium;font-style:normal;font-variant:normal;font-weight:normal;font-stretch:normal;text-indent:0;text-align:start;text-decoration:none;line-height:normal;letter-spacing:normal;word-spacing:normal;text-transform:none;direction:ltr;block-progression:tb;writing-mode:lr-tb;text-anchor:start;baseline-shift:baseline;color:#000000;fill:#ffffff;fill-opacity:1;stroke:none;stroke-width:20;marker:none;visibility:visible;display:inline;overflow:visible;enable-background:accumulate;font-family:Sans;-inkscape-font-specification:Sans"
     d="m 300.59154,225.05523 -15.04332,8.56349 40.62864,98.60863 29.90774,-0.12434 z"
     id="path3921"
     inkscape:connector-curvature="0"
     sodipodi:nodetypes="ccccc" />
</svg>

<svg width="580" height="580" viewBox="0 0 580 580" fill="none" xmlns="http://www.w3.org/2000/svg">
<g clip-path="url(#clip0)">
<path d="M66.275 1.768C24.94 1.768 1.70398 23.139 1.70398 66.804V516.927C1.70398 557.771 22.599 579.156 63.896 579.156H515.92C557.227 579.156 578.149 558.841 578.149 516.927V66.804C578.149 24.203 557.227 1.768 514.628 1.768C514.624 1.768 66.133 1.625 66.275 1.768Z" fill="#111111" stroke="#EEEEEE" stroke-width="3.408"/>
<path fill-rule="evenodd" clip-rule="evenodd" d="M536.732 281.867L500.491 233.603C493.078 224.679 488.065 217.407 476.158 217.407H403.158C394.219 217.407 386.935 224.679 386.935 233.603V395.564C386.935 404.456 394.171 411.679 403.06 411.744C407.051 383.838 430.914 362.248 459.936 362.248C488.974 362.248 512.837 383.854 516.811 411.76H532.936C541.875 411.76 549.158 404.488 549.158 395.564C549.158 395.564 549.158 329.921 549.158 314.583C549.158 299.246 536.732 281.867 536.732 281.867V281.867ZM435.602 314.583V249.799H475.282C477.894 249.799 481.528 253.621 481.528 253.621L515.675 300.817C518.709 305.254 521.986 310.534 521.986 314.583H435.602V314.583Z" fill="white" stroke="white" stroke-width="4.25836" stroke-linecap="round" stroke-linejoin="round"/>
<path d="M265.268 457.32C285.991 457.32 302.79 440.547 302.79 419.858C302.79 399.169 285.991 382.396 265.268 382.396C244.545 382.396 227.746 399.169 227.746 419.858C227.746 440.547 244.545 457.32 265.268 457.32Z" fill="white" stroke="white" stroke-width="4.25836" stroke-linecap="round" stroke-linejoin="round"/>
<path d="M459.936 457.32C480.659 457.32 497.458 440.547 497.458 419.858C497.458 399.169 480.659 382.396 459.936 382.396C439.213 382.396 422.414 399.169 422.414 419.858C422.414 440.547 439.213 457.32 459.936 457.32Z" fill="white" stroke="white" stroke-width="4.25836" stroke-linecap="round" stroke-linejoin="round"/>
<path fill-rule="evenodd" clip-rule="evenodd" d="M96.6563 393.646C96.6563 402.57 103.557 407.924 112.495 407.924C112.495 407.924 123.831 359.815 166.021 359.974C208.211 360.133 214.17 387.831 215.099 386.611C229.9 358.031 269.855 360.714 269.855 360.714C269.855 360.714 320.838 364.674 322.127 411.76H354.491C363.429 411.76 370.713 404.488 370.713 395.564C372.14 377.213 370.65 350.191 370.65 350.191L96.3632 350.542C96.3632 350.542 96.6563 373.604 96.6563 393.646H96.6563Z" fill="white" stroke="white" stroke-width="4.25836" stroke-linecap="round" stroke-linejoin="round"/>
<path d="M169.268 457.32C189.991 457.32 206.79 440.547 206.79 419.858C206.79 399.169 189.991 382.396 169.268 382.396C148.545 382.396 131.746 399.169 131.746 419.858C131.746 440.547 148.545 457.32 169.268 457.32Z" fill="white" stroke="white" stroke-width="4.25836" stroke-linecap="round" stroke-linejoin="round"/>
<path d="M262.665 87.9465L33.0752 226.175L94.0748 327.492L323.664 189.263L262.665 87.9465Z" fill="white" stroke="white" stroke-width="4.25836" stroke-linecap="round" stroke-linejoin="round"/>
<path d="M300.592 225.055L285.548 233.619L326.177 332.227L356.085 332.103L300.592 225.055Z" fill="white"/>
</g>
<defs>
<clipPath id="clip0">
<path d="M0 0H580V580H0V0Z" fill="white"/>
</clipPath>
</defs>
</svg>
